; generated by Slic3r 1.1.7 on 2018-01-14 at 13:30:48

; perimeters extrusion width = 0.50mm
; infill extrusion width = 0.84mm
; solid infill extrusion width = 0.84mm
; top infill extrusion width = 0.84mm

G21 ; set units to millimeters
M107
M104 S200 ; set temperature
G28 ; home all axes
G1 Z5 F5000 ; lift nozzle

M109 S200 ; wait for temperature to be reached
G90 ; use absolute coordinates
G92 E0
M82 ; use absolute distances for extrusion
G1 F1800.000 E-1.00000
G92 E0
G1 Z0.350 F7800.000
G1 X94.542 Y94.630 F7800.000
G1 E1.00000 F1800.000
G1 X95.115 Y94.103 E1.02532 F600.000
G1 X95.743 Y93.635 E1.05079
G1 X96.405 Y93.239 E1.07589
G1 X97.116 Y92.907 E1.10145
G1 X97.853 Y92.650 E1.12682
G1 X98.611 Y92.470 E1.15217
G1 X99.386 Y92.368 E1.17761
G1 X100.054 Y92.343 E1.19934
G1 X100.796 Y92.385 E1.22354 F600.000
G1 X101.453 Y92.482 E1.24513
G1 X102.070 Y92.628 E1.26578
G1 X102.697 Y92.834 E1.28724
G1 X103.286 Y93.084 E1.30805
G1 X103.876 Y93.396 E1.32978
G1 X104.405 Y93.737 E1.35026
G1 X104.933 Y94.144 E1.37193
G1 X105.401 Y94.572 E1.39258
G1 X105.850 Y95.060 E1.41415
G1 X106.239 Y95.561 E1.43480
G1 X106.601 Y96.120 E1.45645
G1 X106.898 Y96.677 E1.47701
G1 X107.161 Y97.288 E1.49862
G1 X107.361 Y97.890 E1.51929
G1 X107.517 Y98.540 E1.54101
G1 X107.616 Y99.209 E1.56301
G1 X107.657 Y99.944 E1.58697
G1 X107.494 Y101.466 E1.63677
G1 X107.357 Y102.032 E1.65573
G1 X107.202 Y102.527 E1.67260
G1 X107.014 Y103.010 E1.68947
G1 X106.671 Y103.708 E1.71474
G1 X106.261 Y104.365 E1.73998
G1 X105.948 Y104.782 E1.75692
G1 X105.594 Y105.193 E1.77457
G1 X105.054 Y105.719 E1.79910
G1 X104.636 Y106.063 E1.81673
G1 X104.016 Y106.490 E1.84121
G1 X103.566 Y106.748 E1.85808
G1 X102.861 Y107.076 E1.88337
G1 X102.374 Y107.254 E1.90025
G1 X101.623 Y107.458 E1.92555
G1 X100.857 Y107.584 E1.95081
G1 X100.341 Y107.625 E1.96765
G1 X99.564 Y107.620 E1.99294
G1 X99.046 Y107.573 E2.00989
G1 X98.511 Y107.486 E2.02751
G1 X97.782 Y107.303 E2.05197
G1 X97.267 Y107.126 E2.06966
G1 X96.579 Y106.823 E2.09414
G1 X96.104 Y106.563 E2.11174
G1 X95.475 Y106.146 E2.13631
G1 X95.050 Y105.810 E2.15393
G1 X94.501 Y105.293 E2.17846
G1 X94.140 Y104.890 E2.19608
G1 X93.673 Y104.268 E2.22137
G1 X93.282 Y103.623 E2.24591
G1 X93.052 Y103.159 E2.26277
G1 X92.845 Y102.657 E2.28044
G1 X92.618 Y101.939 E2.30494
G1 X92.507 Y101.469 E2.32065
G1 X92.344 Y99.887 E2.37239
G1 X92.370 Y99.361 E2.38953
G1 X92.448 Y98.733 E2.41012
G1 X92.587 Y98.081 E2.43179
G1 X92.771 Y97.477 E2.45235
G1 X93.018 Y96.857 E2.47407
G1 X93.303 Y96.288 E2.49476
G1 X93.650 Y95.721 E2.51638
G1 X94.024 Y95.213 E2.53692
G1 X94.490 Y94.684 E2.55986
G1 F1800.000 E1.55986
G92 E0
G1 X99.995 Y100.625 F7800.000
G1 E1.00000 F1800.000
G1 X99.868 Y100.611 E1.00414 F600.000
G1 X99.728 Y100.563 E1.00897
G1 X99.620 Y100.496 E1.01311
G1 X99.513 Y100.393 E1.01793
G1 X99.444 Y100.286 E1.02207
G1 X99.398 Y100.168 E1.02621
G1 X99.366 Y99.847 E1.03671
G1 X99.455 Y99.645 E1.04388
G1 X99.587 Y99.498 E1.05032
G1 X99.778 Y99.389 E1.05747
G1 X99.972 Y99.351 E1.06391
G1 X100.190 Y99.378 E1.07105
G1 X100.386 Y99.477 E1.07820
G1 X100.539 Y99.636 E1.08535
G1 X100.631 Y99.836 E1.09252
G1 X100.610 Y100.137 E1.10234
G1 X100.570 Y100.258 E1.10648
G1 X100.506 Y100.368 E1.11061
G1 X100.421 Y100.462 E1.11475
G1 X100.319 Y100.538 E1.11889
G1 X100.203 Y100.591 E1.12303
G1 X100.070 Y100.621 E1.12749
G1 X99.933 Y100.514 F7800.000
M106 S255
G1 F1800.000 E0.12749
G92 E0
G1 Z0.600 F7800.000
G1 X100.287 Y100.955 F7800.000
G1 E1.00000 F1800.000
G1 X100.475 Y100.620 E1.00679 F600.000
G1 X100.565 Y100.396 E1.01105
G1 X100.621 Y100.133 E1.01581
G1 X100.622 Y99.896 E1.02000
G1 X100.549 Y99.691 E1.02384
G1 X100.407 Y99.519 E1.02778
G1 X100.222 Y99.410 E1.03160
G1 X100.010 Y99.370 E1.03540
G1 X99.783 Y99.408 E1.03947
G1 X99.599 Y99.514 E1.04323
G1 X99.460 Y99.676 E1.04700
G1 X99.380 Y99.886 E1.05098
G1 X99.380 Y100.139 E1.05545
G1 X99.431 Y100.384 E1.05988
G1 X99.519 Y100.606 E1.06410
G1 X99.709 Y100.953 E1.07109
G1 F1800.000 E0.07109
G92 E0
M107
M104 S0 ; turn off temperature
G28 X0  ; home X axis
M84     ; disable motors

; filament used = 1.8mm (0.0cm3)

; avoid_crossing_perimeters = 0
; bed_size = 200,200
; bed_temperature = 0
; bridge_acceleration = 0
; bridge_fan_speed = 100
; bridge_flow_ratio = 1
; brim_width = 0
; complete_objects = 0
; cooling = 1
; default_acceleration = 0
; disable_fan_first_layers = 1
; duplicate_distance = 6
; end_gcode = M104 S0 ; turn off temperature\nG28 X0  ; home X axis\nM84     ; disable motors\n
; external_perimeters_first = 0
; extruder_clearance_height = 20
; extruder_clearance_radius = 20
; extruder_offset = 0x0
; extrusion_axis = E
; extrusion_multiplier = 1
; fan_always_on = 0
; fan_below_layer_time = 60
; filament_diameter = 3
; first_layer_acceleration = 0
; first_layer_bed_temperature = 0
; first_layer_extrusion_width = 200%
; first_layer_speed = 30%
; first_layer_temperature = 200
; g0 = 0
; gcode_arcs = 0
; gcode_comments = 0
; gcode_flavor = reprap
; infill_acceleration = 0
; infill_first = 0
; layer_gcode = 
; max_fan_speed = 100
; min_fan_speed = 35
; min_print_speed = 10
; min_skirt_length = 0
; notes = 
; nozzle_diameter = 0.5
; only_retract_when_crossing_perimeters = 1
; ooze_prevention = 0
; output_filename_format = [input_filename_base].gcode
; perimeter_acceleration = 0
; post_process = 
; print_center = 100,100
; resolution = 0
; retract_before_travel = 2
; retract_layer_change = 1
; retract_length = 1
; retract_length_toolchange = 10
; retract_lift = 0
; retract_restart_extra = 0
; retract_restart_extra_toolchange = 0
; retract_speed = 30
; skirt_distance = 6
; skirt_height = 1
; skirts = 1
; slowdown_below_layer_time = 30
; spiral_vase = 0
; standby_temperature_delta = -5
; start_gcode = G28 ; home all axes\nG1 Z5 F5000 ; lift nozzle\n
; temperature = 200
; threads = 2
; toolchange_gcode = 
; travel_speed = 130
; use_firmware_retraction = 0
; use_relative_e_distances = 0
; vibration_limit = 0
; wipe = 0
; z_offset = 0
; dont_support_bridges = 1
; extrusion_width = 0
; first_layer_height = 0.35
; infill_only_where_needed = 0
; interface_shells = 0
; layer_height = 0.25
; raft_layers = 0
; seam_position = aligned
; support_material = 0
; support_material_angle = 0
; support_material_enforce_layers = 0
; support_material_extruder = 1
; support_material_extrusion_width = 0
; support_material_interface_extruder = 1
; support_material_interface_layers = 3
; support_material_interface_spacing = 0
; support_material_interface_speed = 100%
; support_material_pattern = pillars
; support_material_spacing = 2.5
; support_material_speed = 60
; support_material_threshold = 0
; bottom_solid_layers = 3
; bridge_speed = 60
; external_perimeter_speed = 70%
; extra_perimeters = 1
; fill_angle = 45
; fill_density = 60%
; fill_pattern = honeycomb
; gap_fill_speed = 20
; infill_every_layers = 1
; infill_extruder = 1
; infill_extrusion_width = 0
; infill_speed = 60
; overhangs = 1
; perimeter_extruder = 1
; perimeter_extrusion_width = 0
; perimeter_speed = 30
; perimeters = 3
; small_perimeter_speed = 30
; solid_fill_pattern = concentric
; solid_infill_below_area = 70
; solid_infill_every_layers = 0
; solid_infill_extrusion_width = 0
; solid_infill_speed = 60
; thin_walls = 1
; top_infill_extrusion_width = 0
; top_solid_infill_speed = 50
; top_solid_layers = 3
